public/images/linkedin_logo.svg

<svg fill="none" height="44" viewBox="0 0 44 44" width="44" xmlns="http://www.w3.org/2000/svg" xmlns:xlink="http://www.w3.org/1999/xlink"><clipPath id="a"><path d="m6 6h32v32h-32z"/></clipPath><g clip-path="url(#a)"><path clip-rule="evenodd" d="m22 6c8.8306 0 16 7.1694 16 16s-7.1694 16-16 16-16-7.1694-16-16 7.1694-16 16-16zm-5.0023 24.9919v-12.495h-4.154v12.495zm14.9762 0v-7.1653c0-3.8381-2.0491-5.6235-4.7818-5.6235-2.2034 0-3.1904 1.2118-3.743 2.0629v-1.7691h-4.153c.0551 1.1723 0 12.495 0 12.495h4.1529v-6.9781c0-.3735.0269-.7469.1369-1.0138.2997-.7459.9836-1.5187 2.131-1.5187 1.5021 0 2.1039 1.1463 2.1039 2.8253v6.6853zm-17.0252-18.52c-1.4212 0-2.3498.9343-2.3498 2.159 0 1.1989.9004 2.159 2.2949 2.159h.0268c1.4484 0 2.35-.9601 2.35-2.159-.0269-1.2247-.9015-2.159-2.3219-2.159z" fill="#fff" fill-rule="evenodd" opacity=".48"/></g></svg>

<svg width="44" height="44" viewBox="0 0 44 44" fill="none" xmlns="http://www.w3.org/2000/svg">
<g clip-path="url(#clip0_693_1541)">
<path opacity="0.48" fill-rule="evenodd" clip-rule="evenodd" d="M22 6C30.8306 6 38 13.1694 38 22C38 30.8306 30.8306 38 22 38C13.1694 38 6 30.8306 6 22C6 13.1694 13.1694 6 22 6ZM16.9977 30.9919V18.4969H12.8437V30.9919H16.9977ZM31.9739 30.9919V23.8266C31.9739 19.9885 29.9248 18.2031 27.1921 18.2031C24.9887 18.2031 24.0017 19.4149 23.4491 20.266V18.4969H19.2961C19.3512 19.6692 19.2961 30.9919 19.2961 30.9919H23.449V24.0138C23.449 23.6403 23.4759 23.2669 23.5859 23C23.8856 22.2541 24.5695 21.4813 25.7169 21.4813C27.219 21.4813 27.8208 22.6276 27.8208 24.3066V30.9919H31.9739ZM14.9487 12.4719C13.5275 12.4719 12.5989 13.4062 12.5989 14.6309C12.5989 15.8298 13.4993 16.7899 14.8938 16.7899H14.9206C16.369 16.7899 17.2706 15.8298 17.2706 14.6309C17.2437 13.4062 16.3691 12.4719 14.9487 12.4719Z" fill="white"/>
</g>
<defs>
<clipPath id="clip0_693_1541">
<rect width="32" height="32" fill="white" transform="translate(6 6)"/>
</clipPath>
</defs>
</svg>
